X: 27052
T: Miss Hog Of Newliston
R: reel
M: 4/4
K: Gminor
A|B<d A>c B<G G>A|B>G c>B A<F F>A|B<d A>c B<G g>d|(3edc A>d B<G G>A|
B<d A>c B<G G>A|(3BAG c>B A<F F>A|B<d A>c B>G g>d|(4edcB A>d B<G G>A||
B>d c>B f>d c>B|A<F c>F d>F c>F|B<d A>c B<G ga|b>a g>^f (3g/g/g/ g2a|
b>a g>^f g>=f e>d|e>c d<B A<F c>A|(3BAG c>A d>B e>c|d<b a>^f g<G G2||

